X:1
T:Title
%%score { ( 1 4 ) | ( 2 3 ) }
L:1/8
Q:1/4=100
M:6/8
K:D
V:1 treble nm="Grand Piano"
V:4 treble 
V:2 bass 
V:3 bass 
V:1
 B2 ^A B2 [DG] | [EA]3 E3 | F2 E F2 D | [=CE]3 .D3 | B2 ^A B2 [DG] | [EA]3 E3 | F2 D B2 A | %7
w: J.~H.~Hall * * *|||||||
 [B,G]6 | d2 c d2 B | [E=c]3 [EG]3 | [DA]2 [CE] [DF]2 [EG] | F3- [F=c]3 | B2 ^A B2 [DG] | %13
w: ||||||
 [EA]3 [=CE]3 | [DF]2 [EG] [DF]2 E | D6 | B2 ^A B2 [DG] | [EA]3 E3 | F2 E F2 D | [=CE]3 .D3 | %20
w: |||||||
 B2 ^A B2 [DG] | [EA]3 E3 | F2 D B2 A |[M:7/4] [B,G]6 z2 z2 z4 |] %24
w: ||||
V:2
 [G,D]2 [G,C] [G,D]2 [B,,G,] | [=C,G,]3 [C,G,=C]3 | [D,=C]2 [D,G,C] [D,A,C]2 [D,F,C] | z3 .B,3 | %4
 [G,D]2 [G,C] [G,D]2 [B,,G,] | [=C,G,]3 [C,G,=C]3 | [D,=C]2 [D,A,C] [D,G,D]2 [D,F,C] | [G,,G,]6 | %8
 [G,B,G]2 [G,^A,G] [G,B,G]2 [G,=F] | [=C,G,]3 [C,G,]3 | [A,,F,]2 [A,,A,] [A,,A,]2 [A,,A,] | %11
 [D,A,]6 | [G,D]2 [G,C] [G,D]2 [B,,G,] | [=C,G,]3 [C,G,]3 | [A,,A,]2 [A,,A,] [A,,A,]2 [G,C] | %15
 [D,F,]6 | [G,D]2 [G,C] [G,D]2 [B,,G,] | [=C,G,]3 [C,G,=C]3 | [D,=C]2 [D,G,C] [D,A,C]2 [D,F,C] | %19
 z3 .B,3 | [G,D]2 [G,C] [G,D]2 [B,,G,] | [=C,G,]3 [C,G,=C]3 | [D,=C]2 [D,A,C] [D,G,D]2 [D,F,C] | %23
[M:7/4] [G,,G,]6 z2 z2 z4 |] %24
V:3
 x6 | x6 | x6 | [G,,G,]6 | x6 | x6 | x6 | x6 | x6 | x6 | x6 | x6 | x6 | x6 | x6 | x6 | x6 | x6 | %18
 x6 | [G,,G,]6 | x6 | x6 | x6 |[M:7/4] x14 |] %24
V:4
 x6 | x6 | x6 | x6 | x6 | x6 | x6 | x6 | x6 | x6 | x6 | A3 z3 | x6 | x6 | x6 | x6 | x6 | x6 | x6 | %19
 x6 | x6 | x6 | x6 |[M:7/4] x14 |] %24

